src/images/check.svg

<svg xmlns="http://www.w3.org/2000/svg" width="28" height="28" fill="none" viewBox="0 0 28 28"><path fill="#71AA55" d="M9.51003 24.0299L0.410033 14.9299C-0.136678 14.3832 -0.136678 13.4968 0.410033 12.95L2.38988 10.9701C2.9366 10.4233 3.82308 10.4233 4.36979 10.9701L10.5 17.1002L23.6302 3.97009C24.1769 3.42338 25.0634 3.42338 25.6101 3.97009L27.5899 5.95C28.1367 6.49671 28.1367 7.38314 27.5899 7.9299L11.4899 24.03C10.9432 24.5767 10.0567 24.5767 9.51003 24.0299V24.0299Z"/></svg>

<svg fill="none" viewBox="0 0 28 28"><path fill="#71AA55" d="M9.51 24.03l-9.1-9.1a1.4 1.4 0 010-1.98l1.98-1.98a1.4 1.4 0 011.98 0l6.13 6.13L23.63 3.97a1.4 1.4 0 011.98 0l1.98 1.98a1.4 1.4 0 010 1.98l-16.1 16.1a1.4 1.4 0 01-1.98 0z"/></svg>
